!!!COM: Scarlatti, Domenico
!!!CDT: 1685///-1757///
!!!OTL: Sonata in C Major, K.513, L.503
!!!SCT: K. 513
!!!SCT: L. 503
!!!OMD: Pastorale
**kern	**dynam	**kern	**dynam
*staff2	*staff2	*staff1	*staff1
*Icemba	*Icemba	*Icemba	*Icemba
*>[A,A,B,B]	*>[A,A,B,B]	*>[A,A,B,B]	*>[A,A,B,B]
*>norep[A,B]	*>norep[A,B]	*>norep[A,B]	*>norep[A,B]
*>A	*>A	*>A	*>A
*clefF4	*clefF4	*clefG2	*clefG2
*k[]	*k[]	*k[]	*k[]
*M12/8	*M12/8	*M12/8	*M12/8
*MM114	*MM114	*MM114	*MM114
=1-	=1-	=1-	=1-
2.r	.	(8.ee\L	p
.	.	16ff\k	.
.	.	8ee\J	.
.	.	4gg\)	.
.	.	8gg\	.
(8.e\L	.	4.gg\	.
16f\k	.	.	.
8e\J	.	.	.
4g\)	.	4r	.
8g\	.	(8gg\	.
=2	=2	=2	=2
*^	*	*	*
2.r	4r	.	4b\	.
.	(8g\	.	8cc\	<
.	4B\	.	4dd\	(
.	8c\	.	8ee\	[
4f/	4.F\	.	4aa\	mf
8e/	.	.	8gg\	.
8.d/L	4.G\	.	8.ff\L	.
16c/k	.	.	16ee\k	.
8B/J	.	.	8dd\J	.
*v	*v	*	*	*
=3	=3	=3	=3
4c/)	.	8.cc\L	.
.	.	16b\k	.
(8C/	.	8cc\J)	.
4.CC/)	.	4r	.
.	.	8r	.
2.r	.	(8.dd\L	p
.	.	16ee-\k	.
.	.	8dd\J	.
.	.	4ff\)	.
.	.	8ff\	.
=4	=4	=4	=4
(8.d\L	.	4.ff\	.
16e-\k	.	.	.
8d\J	.	.	.
4f\)	.	4r	.
8f\	.	(8ff\	.
4r	.	4a\	<
(8f\	.	8b-\	(
4A\	.	4cc\	(
8B-\	.	8dd\	[
=5	=5	=5	=5
*^	*	*	*
4e-/	4.E-\	.	4gg\	mf
8d/	.	.	8ff\	.
8.c/L	4.F\	.	8.ee-\L	.
16B-/k	.	.	16dd\k	.
8A/J	.	.	8cc\J	.
4B-/	4B-\)	.	8.b-\L	.
.	.	.	16a\k	.
(8BB-/	8r	.	8b-\J)	.
4BBB-/)	4.r	.	4r	.
*clefG2	*clefG2	*	*	*
(8a-/	.	.	8cc\ (8ff\	mf
=6	=6	=6	=6	=6
*	*	*	*^	*
4g/	4.c\	.	2.r	4b-\ 4een\	.
8a-/	.	.	.	8cc\ 8ff\	.
4g/	4.c\	.	.	4b-\ 4ee\	.
8a-/	.	.	.	8cc\ 8ff\	.
4.g/)	4.c\	.	8ee/L	4.b-\	.
.	.	.	16gg/L	.	.
.	.	.	16ff/J	.	.
.	.	.	8ee/J)	.	.
4r	4.r	.	4.r	4r	.
(8a-/	.	.	.	8cc\ (8ff\	p
*	*	*	*v	*v	*
=7	=7	=7	=7	=7
4g/	4.c\	.	8ee\L	.
.	.	.	8b-\	.
8a-/	.	.	8ff\J	.
4g/	4.c\	.	8ee\L	.
.	.	.	8b-\	.
8a-/	.	.	8ff\J	.
[2.g/	[4.c\	.	8ee\L	.
.	.	.	16gg\L	.
.	.	.	16ff\J	.
.	.	.	8ee\J)	.
.	4c\]	.	([4.gg\	mf
.	8B-\	.	.	.
*v	*v	*	*	*
=8	=8	=8	=8
*	*	*^	*
4An/ 4g/]	.	4.r	4cc#\ 4gg\]	.
8d/ 8f/)	.	.	8dd\ 8ff\)	.
*clefF4	*clefF4	*	*	*
(4G\	.	(4ee/	8b-\L	.
.	.	.	8a\	.
8B-\	.	8dd/	8g\J	.
4A\)	.	2.r	8.cc#\L	.
.	.	.	16bn\k	.
(8AA/	.	.	8a\J)	.
4AAA/)	.	.	4r	.
*clefG2	*clefG2	*	*	*
8f/ 8a/	.	.	8dd\ (8aa\	mf
=9	=9	=9	=9	=9
4e/ 4g/	.	2.r	4cc#\ 4gg\	.
8f/ 8a/	.	.	8dd\ 8aa\	.
4e/ 4g/	.	.	4cc#\ 4gg\	.
8f/ 8a/	.	.	8dd\ 8aa\	.
4.e/ 4.g/	.	8gg/L	4.cc#\	.
.	.	16bb-/L	.	.
.	.	16aa/J	.	.
.	.	8gg/J)	.	.
4r	.	4.r	4r	.
(8f/ 8a/	.	.	8dd\ (8aa\	p
*	*	*v	*v	*
=10	=10	=10	=10
4e/ 4g/	.	8gg\L	.
.	.	8cc#\	.
8f/ 8a/	.	8aa\J	.
4e/ 4g/	.	8gg\L	.
.	.	8cc#\	.
8f/ 8a/	.	8aa\J	.
[4.e/) [4.b/	.	8gg#\L	.
.	.	16bbn\L	.
.	.	16aa\J	.
.	.	8gg#\J)	.
4e/] 4b/]	.	4ff\	.
(8g#/ 8b/	.	([8ddd\	mf
=11	=11	=11	=11
*^	*	*^	*
4a/	2.r	.	8ddd/L]	4ee\	.
.	.	.	8ccc/)	.	.
4e/	.	.	([8bb/J	8dd\	.
.	.	.	8bb/L]	4ccn\	.
*clefF4	*clefF4	*	*	*	*
8E\	.	.	8aa/)	.	.
4r	.	.	(8gg#/J	8b\	.
.	8d/	.	2.r	4ccc\	.
[8a/	(4.A\)	.	.	.	.
4.a/]	.	.	.	8bb\	.
.	.	.	.	4aa\	.
.	4A\	.	.	.	.
8B\	.	.	.	8ggn\	.
=12	=12	=12	=12	=12	=12
8a/L	4.c\	.	2.r	8ff#\L	.
8f#/	.	.	.	8dd#\	.
[8g/J	.	.	.	[8ee\J	.
4g/]	4.B\	.	.	4ee\]	.
8f#/	.	.	.	8dd#\)	.
[2.e/)	4r	.	(4bb/	2.b\	.
.	([8E\	.	8aa/	.	.
.	4E\]	.	4gg/	.	.
.	8F#\	.	8ff#/	.	.
*	*	*	*v	*v	*
=13	=13	=13	=13	=13
4e/]	4.G\)	.	8ee\L	.
.	.	.	8cc#\	.
(8g/	.	.	[8ddn\J	.
4f#/	4.A\	.	4dd\]	.
8e/)	.	.	8cc#\	.
(4D/	2.r	.	4.f#\ 4.dd\)	.
8DD/)	.	.	.	.
4r	.	.	(24a/LL	p
.	.	.	24b/	.
.	.	.	24a/J	.
.	.	.	(24g/L)	.
.	.	.	24f#/	.
.	.	.	24e/J	.
8r	.	.	8d'/J)	.
*v	*v	*	*	*
=14	=14	=14	=14
4.DD/	.	(24b/LL	<X
.	.	24ccn/	(X
.	.	24b/J	(X
.	.	32a/LL)	(X
.	.	32g/	(X
.	.	32f/	(X
.	.	32e#/JJ	(X
.	.	8d'/J	(X
4.DD'/	.	(32cc/LLL	(X
.	.	32dd/	(X
.	.	32cc/	(X
.	.	32b/	(X
.	.	32a/	(X
.	.	32g/	(X
.	.	32f/	(X
.	.	32e#/JJ	(X
.	.	8d'/J)	[X
4.DD/	.	(4e#/ 4cc#/	f
.	.	8f/) 8dd/	.
4.DD/	.	(24a/LL	p
.	.	24b/	.
.	.	24a/J	.
.	.	24g/L	.
.	.	24f/	.
.	.	24e#/J	.
.	.	8d'/J)	.
=15	=15	=15	=15
4.DD/	.	(24b/LL	<X
.	.	24ccn/	(X
.	.	24b/J	(X
.	.	32a/LL	(X
.	.	32g/	(X
.	.	32f#/	(X
.	.	32e/JJ	(X
.	.	8d'/J)	(X
4.DD/	.	(32cc/LLL	(X
.	.	32dd/	(X
.	.	32cc/	(X
.	.	32b/JJ	(X
.	.	32a/LL	(X
.	.	32g/	(X
.	.	32f#/	(X
.	.	32e/JJ	(X
.	.	8d'/J)	[X
[4.DD/	.	(4e/ 4cc#/	f >
.	.	8f#/) 8dd/	]
4DD/]	.	4.ccn\ 4.aa\	f
(8F#\	.	.	.
=16	=16	=16	=16
*	*	*^	*
4G\	.	(8gg/L	4b\	mf
.	.	8dd/	.	.
8C/	.	8cc/J	8a\	.
4D/	.	4g/ 4b/	4.r	.
8DD/)	.	8f#/ 8a/)	.	.
4r	.	4.r	(8.cc\L	f
.	.	.	16b\k	.
8r	.	.	8cc\J	.
4r	.	4.aa/	(4aa\)	.
(8F#\	.	.	8cc\	p
=17	=17	=17	=17	=17
4G\	.	8gg/L	4b\)	.
.	.	8dd/	.	.
8C/	.	8cc/J	8a\	.
4D/	.	4g/ 4b/	4.r	.
8DD/)	.	8f#/ 8a/	.	.
=.	=.	=.	=.	=.
!!!OMD: Molto allegro
*MM172	*MM172	*MM172	*MM172	*MM172
4.GG/	.	(4gg/	4.g\	mf
.	.	8dd/	.	.
4.GG/ 4.G/	.	4b/)	4r	.
.	.	(8dd/	8b\	p
=18	=18	=18	=18	=18
4.GG/ 4.C/ 4.G/	.	8.ee/L	4.cc\	<X
.	.	16dd/k	.	(X
.	.	8ee/J	.	(X
4.GG/ 4.D/	.	8.ff#/L	4.a\	(X
.	.	16ee/k	.	(X
.	.	8ff#/J	.	[X
4.GG/ 4.D/ 4.G/	.	4gg/	4.b\	mf >
.	.	8dd/	.	)
4.GG/ 4.D/ 4.G/	.	4b/)	4r	]
.	.	8dd/	(8d\	p
=19	=19	=19	=19	=19
4.GG/ 4.C/ 4.G/	.	4.cc/	8.e\L	<X
.	.	.	16d\k	(X
.	.	.	8e\J	(X
4.GG/ 4.D/ 4.G/	.	4.a/	8.f#\L	(X
.	.	.	16e\k	(X
.	.	.	8f#\J	(X
[4.GG/ [4.D/ [4.G/	.	4.b/	4g\	(X
.	.	.	8d\	[X
4GG/] 4D/] 4G/]	.	4.r	4.g\) 4.b\ 4.dd\	mf
(8D/	.	.	.	.
*	*	*v	*v	*
=20	=20	=20	=20
8.GG/ 8.E/L	.	(4.g\ 4.cc\	.
16D/k	.	.	.
8E/J	.	.	.
8.F#/L	.	4.a\) 4.cc\	.
16E/k	.	.	.
8F#/J	.	.	.
4.GG/ 4.G/)	.	8.g\ (8.b\L	.
.	.	16a\ 16cc\k	.
.	.	8b\ 8dd\J	.
4.GG/ 4.G/	.	4cc\ 4ee\	.
.	.	8b\ 8dd\	.
=21	=21	=21	=21
4.GG/ 4.A/	.	4a/ 4cc/	.
.	.	8g/ 8b/	.
4.GG/ 4.A/	.	8.f#/ 8.a/L	.
.	.	16g/ 16b/k	.
.	.	8a/ 8cc/J	.
4.GG/ 4.G/	.	8.g/ 8.b/L	<
.	.	16a/ 16cc/k	(
.	.	8b/ 8dd/J	(
4.GG/ 4.G/	.	4cc\ 4ee\	(
.	.	8b\ 8dd\	(
=22	=22	=22	=22
*	*	*^	*
(4.CC/ 4.C/	.	4e/ 4cc/	2.r	(
.	.	8d/ 8b/	.	(
4.DD/) 4.D/	.	8.c/ 8.a/L	.	(
.	.	16B/ 16g/k	.	(
.	.	8A/ 8f#/J	.	(
4.GGG/	.	4g/	4.B\	(
.	.	8d/	.	(
4r	.	4g/)	4.r	[
8r	.	8b\ (8dd\	.	p
*	*	*v	*v	*
=23	=23	=23	=23
2.r	.	4b\ 4dd\	.
.	.	8a\ 8cc\	.
.	.	4g/ 4b/	.
.	.	8f#/ 8a/	.
(4G\	.	[4.g/ [4.b/)	.
8D\	.	.	.
4.GG/)	.	4g/] 4b/]	.
.	.	8a/ (8cc/	.
=24	=24	=24	=24
(4.G\	.	4b\ 4dd\	.
.	.	8a\ 8cc\	.
4.GG/)	.	8.g/ 8.b/L	.
.	.	16f#/ 16a/k	.
.	.	8e/ 8g/J	.
(4D/	.	[4.f#/ [4.a/)	.
8AA/	.	.	.
4.DD/)	.	4f#/] (4a/]	.
.	.	8dd\	.
=25	=25	=25	=25
*	*	*^	*
(4.D\	.	4a/	4.f#\	.
.	.	8dd/	.	.
4.DD/	.	4f#/	4.f#\	.
.	.	8dd/	.	.
4.D\	.	4f#/ 4a/	2.r	.
.	.	8g/ (8b/)	.	.
4.DD/)	.	4a\ 4cc\	.	.
.	.	8b\ 8dd\	.	.
*	*	*v	*v	*
=26	=26	=26	=26
(4.CC/ 4.C/	.	4cc\ 4ee\	mf
.	.	8b\ 8dd\	.
4.DD/) 4.D/	.	8.a/ 8.cc/L	.
.	.	16g/ 16b/k	.
.	.	8f#/ 8a/J	.
(4G\	.	[4.g/)	.
8D\	.	.	.
4.GG/)	.	4g/]	.
.	.	8dd\	p
=27	=27	=27	=27
*	*	*^	*
(4.D\	.	4a/	4.f#\	.
.	.	8dd/	.	.
4.DD/	.	4a/	4.f#\	.
.	.	8dd/	.	.
4.D\	.	4f#/ 4a/	2.r	.
.	.	8g/ (8b/	.	.
4.DD/)	.	4a\ 4cc\	.	.
.	.	8b\ 8dd\	.	.
*	*	*v	*v	*
=28	=28	=28	=28
(4.CC/ 4.C/	.	4cc\ 4ee\	.
.	.	8b\ 8dd\	.
4.DD/) 4.D/	.	8.a/ 8.cc/L	.
.	.	16g/ 16b/k	.
.	.	8f#/ 8a/J	.
4.GG\ 4.G\	.	4g/)	.
.	.	8cc\ (8aa\	mf
4.GG\ 4.G\	.	4b\ 4gg\	.
.	.	8a\ 8ff#\	.
=29	=29	=29	=29
*	*	*^	*
4.GG\ 4.G\	.	4g/ 4ee/	4.r	.
.	.	8f#/ 8dd/	.	.
4.GG\ 4.G\	.	8cc/L	4e\	.
.	.	8b/	.	.
.	.	8a/J	8f#\	.
4.GG\ 4.G\	.	4b/)	4g\	.
.	.	8r	8cc\ (8ee\	p
4.GG\ 4.G\	.	4.r	4b\ 4dd\	.
.	.	.	8a\ 8cc\	.
*	*	*v	*v	*
=30	=30	=30	=30
*^	*	*	*
2.r	4.GG\ 4.G\	.	4g/ 4b/	<X
.	.	.	8f#/ 8a/	(X
.	4.GG\ 4.G\	.	8.e/ 8.g/L	(X
.	.	.	16d/ 16f#/k	(X
.	.	.	8c/ 8e/J	[X
4.r	4.GG\ 4.G\	.	4B/ 4d/	mf
.	.	.	8A/ 8c/	.
(4G/	4.GG\	.	4.B/ 4.d/)	.
8F#/	.	.	.	.
=31	=31	=31	=31	=31
*	*	*	*^	*
4E/	4.GG\	.	2.r	4.c/ (4.e/	.
8D/	.	.	.	.	.
8.C/L	4.GG\	.	.	4.d/ 4.f#/	.
16BB/k	.	.	.	.	.
8AA/J	.	.	.	.	.
4.GG/	4.GG\)	.	4.r	4B/ 4g/)	.
.	.	.	.	8c/ (8a/	.
4.r	4.GG\ 4.G\	.	4.d\	8.b/L	.
.	.	.	.	16cc/k	.
.	.	.	.	8dd/J	.
*v	*v	*	*	*	*
=32	=32	=32	=32	=32
(4.CC/ 4.C/	.	4cc/	8.e\L	.
.	.	.	16f#\k	.
.	.	8b/)	8g\J	.
4.DD/) 4.D/	.	4g/ (4b/	4.r	.
.	.	8f#/ 8a/	.	.
(4GG/	.	4.g/)	2.r	mf
8D\	.	.	.	.
4G\	.	4r	.	.
8D\	.	(8b\	.	.
*	*	*v	*v	*
=33	=33	=33	=33
4GG/	.	4cc#\	.
8D\	.	8dd\)	.
4G\	.	4r	.
8D\	.	(8ee\	.
4GG/	.	4ff#\	.
8D\	.	8gg\)	.
4G\	.	4r	.
8D\	.	(8b\	.
=34	=34	=34	=34
4GG/	.	4cc#\	>X
8D\	.	8dd\)	)X
4G\	.	4r	)X
8D\	.	(8ee\	)X
4.GG/)	.	4ff#\	)X
.	.	8gg\)	)X
4.GGG/	.	4r	]X
.	.	(8ee\	p
=35	=35	=35	=35
4r	.	4ff#\	.
8r	.	8gg\)	.
4.GGG/	.	4r	.
.	.	(8ee\	pp
4r	.	4ff#\	.
8r	.	8gg\)	.
4.GGG/	.	4r	.
.	.	8r	.
=36	=36	=36	=36
*>B	*>B	*>B	*>B
!!!OMD: Presto
*M3/8	*	*M3/8	*
*MM132	*MM132	*MM132	*MM132
*^	*	*	*
4G/	(4.G\	.	(16gg\LL	f
.	.	.	16dd\	.
.	.	.	16b\	.
.	.	.	16g\	.
8f/	.	.	16b\	.
.	.	.	16g\JJ	.
=37	=37	=37	=37	=37
8e/L)	4.G\	.	16cc\LL	.
.	.	.	16g\	.
8d/	.	.	16dd\	.
.	.	.	16g\	.
8c/J	.	.	16ee\	.
.	.	.	16g\JJ	.
=38	=38	=38	=38	=38
4G/	(4.G\	.	16gg\LL	.
.	.	.	16dd\	.
.	.	.	16b\	.
.	.	.	16g\	.
8f/	.	.	16b\	.
.	.	.	16g\JJ	.
=39	=39	=39	=39	=39
8e/L)	4.G\	.	16cc\LL	.
.	.	.	16g\	.
8d'/	.	.	16dd\	.
.	.	.	16g\	.
8c'/J	.	.	16ee\	.
.	.	.	16g\JJ	.
*v	*v	*	*	*
=40	=40	=40	=40
*	*	*^	*
(16g\LL	.	(4.gg/)	4gg\	.
16d\	.	.	.	.
16B\	.	.	.	.
16G\	.	.	.	.
16B\	.	.	8ff\	.
16G\JJ	.	.	.	.
=41	=41	=41	=41	=41
16c\LL	.	4.gg/	8ee'\L)	.
16G\	.	.	.	.
16d\	.	.	8dd'\	.
16G\	.	.	.	.
16e\	.	.	8cc'\J	.
16G\JJ	.	.	.	.
=42	=42	=42	=42	=42
16g'\LL	.	4.gg/	(4gg\	.
16d\	.	.	.	.
16B\	.	.	.	.
16G\	.	.	.	.
16B\	.	.	8ff\	.
16G\JJ	.	.	.	.
=43	=43	=43	=43	=43
16c\LL	.	4.gg/	8ee\L)	.
16G\	.	.	.	.
16d\	.	.	8dd'\	.
16G\	.	.	.	.
16e\	.	.	8cc'\J	.
16G\JJ)	.	.	.	.
*	*	*v	*v	*
=44	=44	=44	=44
*^	*	*	*
4G/	([4.G\	.	(16gg\LL	.
.	.	.	16dd\	.
.	.	.	16b\	.
.	.	.	16g\	.
8f/	.	.	16a\	.
.	.	.	16aa\JJ	.
=45	=45	=45	=45	=45
4e/	4.G\]	.	16gg\LL	.
.	.	.	16ee\	.
.	.	.	16cc\	.
.	.	.	16g\	.
8d/	.	.	16f\	.
.	.	.	16ff\JJ	.
*v	*v	*	*	*
=46	=46	=46	=46
(16c\LL)	.	4ee\	.
16G\	.	.	.
16E\	.	.	.
16C\	.	.	.
16BB\	.	8dd\	.
16B\JJ	.	.	.
=47	=47	=47	=47
16AA/LL	.	4cc\	.
16A/	.	.	.
16E/	.	.	.
16C/	.	.	.
16GG/	.	8b\	.
16G/JJ	.	.	.
=48	=48	=48	=48
16FF/LL	.	4a/	.
16F/	.	.	.
16C/	.	.	.
16AA/	.	.	.
16EE/	.	8g/	.
16E/JJ	.	.	.
=49	=49	=49	=49
16DD/LL	.	4f/	.
16D/	.	.	.
16BB/	.	.	.
16GG/	.	.	.
16CC/	.	8e/	.
16C/JJ)	.	.	.
=50	=50	=50	=50
4.GGG/	f	(16d\LL)	f
.	.	16f\	.
.	.	16b\	.
.	.	16dd\	.
.	.	16ff\	.
.	.	16dd\JJ)	.
=51	=51	=51	=51
4.GGG/	.	(16e\LL	.
.	.	16g\	.
.	.	16cc\	.
.	.	16ee\	.
.	.	16gg\	.
.	.	16ee\JJ)	.
=52	=52	=52	=52
4.GGG/	p	(16d\LL	.
.	.	16f\	.
.	.	16b\	.
.	.	16dd\	.
.	.	16ff\	.
.	.	16dd\JJ)	.
=53	=53	=53	=53
4.GGG/	.	(16e\LL	.
.	.	16g\	.
.	.	16cc\	.
.	.	16ee\	.
.	.	16gg\	.
.	.	16ee\JJ	.
=54	=54	=54	=54
(16GG\LL	.	4.dd\)	<X
16BB\	.	.	(X
16D\	.	.	(X
16G\	.	.	(X
16B\	.	.	(X
16d\JJ)	.	.	[X
=55	=55	=55	=55
(16A\LL	.	8cc'\ 8ccc'\L	f
16f\	.	.	.
16G\	.	8cc'\ 8ccc'\	.
16e\	.	.	.
16F\	.	8cc'\ 8ccc'\J	.
16d\JJ	.	.	.
=56	=56	=56	=56
4.E\ 4.c\)	.	16cc'\ (16ccc'\LL	.
.	.	16gg\	.
.	.	16ee\	.
.	.	16cc\	.
.	.	16ee\	.
.	.	16gg\JJ	.
=57	=57	=57	=57
(16A\LL	.	8cc'\ 8ccc'\L)	.
16f\	.	.	.
16G\	.	8cc'\ 8ccc'\	.
16e\	.	.	.
16F\	.	8cc'\ 8ccc'\J	.
16d\JJ	.	.	.
=58	=58	=58	=58
4.E\ 4.c\)	.	16cc\LL	.
.	.	16gg\	.
.	.	16ee\	.
.	.	16cc\	.
.	.	16ee\	.
.	.	16gg\JJ	.
=59	=59	=59	=59
(16F\LL	.	16aa\LL	.
16d\	.	16ff\	.
16E\	.	16gg\	.
16c\	.	16ee\	.
16D\	.	16ff\	.
16B\JJ	.	16dd\JJ	.
=60	=60	=60	=60
16E\LL	.	16ee\LL	.
16c\	.	16gg\	.
16D\	.	16b\	.
16B\	.	16dd\	.
16C\	.	16cc\	.
16c\JJ	.	16ee\JJ	.
=61	=61	=61	=61
8F'\L)	.	16dd\LL	.
.	.	16ff\	.
8G'\	.	16ee\	.
.	.	16dd\	.
8GG'\J	.	16cc\	.
.	.	16b\JJ	.
=62	=62	=62	=62
4.CC^/	.	16cc\LL	>
.	.	16dd\	)
.	.	16ee\	)
.	.	16ff\	)
.	.	16gg\	)
.	.	16cc\JJ	]
=63	=63	=63	=63
(16A\LL	.	8cc'\ 8ccc'\L	p
16f\	.	.	.
16G\	.	8cc'\ 8ccc'\	.
16e\	.	.	.
16F\	.	8cc'\ 8ccc'\J	.
16d\JJ	.	.	.
=64	=64	=64	=64
4.E\ 4.c\)	.	16ccc\LL	.
.	.	16gg\	.
.	.	16ee\	.
.	.	16cc\	.
.	.	16ee\	.
.	.	16gg\JJ	.
=65	=65	=65	=65
16A\LL	.	8cc'\ 8ccc'\L	p
16f\	.	.	.
16G\	.	8cc'\ 8ccc'\	.
16e\	.	.	.
16F\	.	8cc'\ 8ccc'\J	.
16d\JJ	.	.	.
=66	=66	=66	=66
4.E\ 4.c\	.	(16ccc\LL	.
.	.	16gg\	.
.	.	16ee\	.
.	.	16cc\	.
.	.	16ee\	.
.	.	16gg\JJ	.
=67	=67	=67	=67
(16F\LL	.	16aa\LL	<X
16d\	.	16ff\	(X
16E\	.	16gg\	(X
16c\	.	16ee\	(X
16D\	.	16ff\	(X
16B\JJ	.	16dd\JJ	(X
=68	=68	=68	=68
16E\LL	.	16ee\LL	(X
16c\	.	16gg\	(X
16D\	.	16b\	(X
16B\	.	16dd\	(X
16C\	.	16cc\	(X
16c\JJ	.	16ee\JJ	(X
=69	=69	=69	=69
8F'\L)	.	16dd\LL	(X
.	.	16ff\	(X
8G'\	.	16ee\	(X
.	.	16dd\	(X
8GG'\J	.	16cc\	(X
.	.	16b\JJ	[X
=70	=70	=70	=70
*^	*	*	*
4.c/	(8C\L	.	16cc\LL	f
.	.	.	16dd\	.
.	8D\	.	16ee\	.
.	.	.	16ff\	.
.	8E\J)	.	16gg\	.
.	.	.	16aa\JJ)	.
=71	=71	=71	=71	=71
4.c/	(8F\L	.	(16g#/LL	.
.	.	.	16a/	.
.	8E\	.	16b/	.
.	.	.	16cc/	.
.	8D\J)	.	16dd/	.
.	.	.	16ee/JJ	.
=72	=72	=72	=72	=72
4.c/	(8E\L	.	16f#/LL	.
.	.	.	16gn/	.
.	8D\	.	16a/	.
.	.	.	16b/	.
.	8C\J)	.	16cc/	.
.	.	.	16dd/JJ	.
*v	*v	*	*	*
=73	=73	=73	=73
8F'\L	.	16fn/LL	.
.	.	16dd/	.
8G'\	.	16e/	.
.	.	16cc/	.
8GG'\J	.	16d/	.
.	.	16b/JJ)	.
=74	=74	=74	=74
*^	*	*	*
4.c/	(8C\L	.	(16cc\LL	p
.	.	.	16dd\	.
.	8D\	.	16ee\	.
.	.	.	16ff\	.
.	8E\J)	.	16gg\	.
.	.	.	16aa\JJ)	.
=75	=75	=75	=75	=75
4.c/	(8F\L	.	(16g#/LL	.
.	.	.	16a/	.
.	8E\	.	16b/	.
.	.	.	16cc/	.
.	8D\J)	.	16dd/	.
.	.	.	16ee/JJ	.
=76	=76	=76	=76	=76
4.c/	(8E\L	.	16f#/LL	.
.	.	.	16gn/	.
.	8D\	.	16a/	.
.	.	.	16b/	.
.	8C\J)	.	16cc/	.
.	.	.	16dd/JJ	.
*v	*v	*	*	*
=77	=77	=77	=77
8F'\L	.	16fn/LL	.
.	.	16dd/	.
8G'\	.	16e/	.
.	.	16cc/	.
8GG'\J	.	16d/	.
.	.	16b/JJ	.
=78	=78	=78	=78
8c'\L	.	16e/LL	<X
.	.	16cc/	(X
8F'\	.	16f/	(X
.	.	16dd/	(X
8G'\J	.	16d/	(X
.	.	16b/JJ	(X
=79	=79	=79	=79
8c'\L	.	16e/LL	(X
.	.	16cc/	(X
8F'\	.	16f/	(X
.	.	16dd/	(X
8G'\J	.	16d/	(X
.	.	16b/JJ	(X
=80	=80	=80	=80
8C'/L	.	16g/LL	(X
.	.	16ee/	(X
8FF'/	.	16f/	(X
.	.	16dd/	(X
8GG'/J	.	16d/	(X
.	.	16b/JJ	[X
=81	=81	=81	=81
4.CC/	.	4.cc^\)	f
==:|!	==:|!	==:|!	==:|!
*-	*-	*-	*-
!!!ENC: Craig Stuart Sapp
!!!END: 2006/08/12
